X:1
T:Title
%%score 1 { 2 | ( 3 4 ) }
L:1/8
Q:1/4=140
M:3/2
K:Eb
V:1 treble nm="Grand Piano, Unnamed-000"
V:2 bass nm="Choir Pad, Meribah, 886 D"
V:3 bass 
V:4 bass 
V:1
 E4 [EG]3 [EG] [EG]2 [DF]2 | [EG]2 [FA]2 [GB]8 | [EG]4 [Ec]3 [Ec] [Ec]2 [EB]2 | [DA]2 [EG]2 [DF]8 | %4
w: By~Lowell~Mason,~1839 * * * *||||
 [FB]4 [Fd]2 [Gc]2 [FB]4 | [E=A]4 [DB]8 | [GB]4 [Ge]2 [GB]2 [GB]2 [EG]2 | [EA]2 [Ac]2 [GB]8 | %8
w: ||||
 [GB]4 [Ge]2 [GB]2 [GB]2 [EG]2 | [EA]2 [Ac]2 [GB]8 | E4 [CF]2 [FA]2 [EG]4 | [DF]4 E8 |] %12
w: ||||
V:2
 G,4 B,3 B, B,2 B,2 | B,2 B,2 B,8 | B,4 A,3 A, A,2 B,2 | B,2 B,2 B,8 | D4 F2 E2 D4 | %5
 C4[K:bass] B,8 | B,4 B,2 E2 E2 B,2 | C2 E2 E8 | B,4 B,2 E2 E2 B,2 | C2 E2 E8 | B,4 A,2 C2 B,4- | %11
 B,4 G,8 |] %12
V:3
 E,4 E,3 E, E,2 A,2 | G,2 F,2 E,8 | E,4 z4 z2 G,2 | F,2 E,2 B,,8 | B,,4 B,,2 E,2 F,4 | F,4 B,,8 | %6
 E,4 E,2 E,2 E,2 E,2 | C,2 A,,2 E,8 | E,4 E,2 E,2 E,2 E,2 | C,2 A,,2 E,8 | G,,4 A,,2 A,,2 B,,4 | %11
 z2 A,2 E,8 |] %12
V:4
 x12 | x12 | x12 | x12 | x12 | x12 | x12 | x12 | x12 | x12 | x12 | B,,4 z4 z4 |] %12

